X:1
T:Waldbächlein
T:Josef Rheinberger
T:Franz Alfred Muth
T:Waldbächlein
T:WoO 014
T:CPDL - Creative Commons Attribution Non Commercial 3.0
T:CPDL - Creative Commons Attribution Non Commercial 3.0
T:CPDL - Creative Commons Attribution Non Commercial 3.0
T:CPDL - Creative Commons Attribution Non Commercial 3.0
T:CPDL - Creative Commons Attribution Non Commercial 3.0
T:CPDL - Creative Commons Attribution Non Commercial 3.0
C:Josef Rheinberger
Z:Franz Alfred Muth
Z:CPDL - Creative Commons Attribution Non Commercial 3.0
%%score [ 1 2 3 4 ]
L:1/8
Q:1/4=63
M:2/4
K:G
V:1 treble nm="Sopran"
V:2 treble nm="Alt"
V:3 treble-8 nm="Tenor"
V:4 bass nm="Bass"
V:1
"^Andantino"!pp! .B | .G.D z .B | .G.D z2 |!mf! d3 G | G>c c2 | e3 A | A>!<(!e d2!<)! |!f! d>d gB | %8
w: Wald-|bäch- lein, Wald-|bäch- lein,|hab' dich|oft be- lauscht,|hab' dich|oft be- lauscht,|wie's so lau- ter,|
 z .B .e.A | z!p! A!<(! c>c | B2 F2!<)! | z!f! F e>e | ^d2 B2 | z!p! F FE/F/ | (.A2 .G2) | %15
w: so lu- stig|durch's Fels- ge-|stein rauscht,|durch's Fels- ge-|stein rauscht.|Hier sprit- zend und|schäu- mend|
 z"^cresc." B B^A/B/ | d4 | z!f! G GA/B/ | d2 c2 | z c (3gfe | (d2 A2- | A2 ^A2) | z2 z!pp! .B | %23
w: in fröh- li- chem|Mut,|dort blau wie der|Him- mel|der ü- ber dir|ruht. _|_ _|Wald-|
 .G.D z .B | .G.D z!mf! B | d2 G>G | Gc z c |!<(! e2 A>e!<)! |"^cresc." d3!f! .d | .g.B z!p! .B | %30
w: bäch- lein, Wald-|bäch- lein, möcht'|schwei- fen wie|du, _ möcht'|schwei- fen wie|du! Schön-|blüm- lein, das|
 .d.G z G |!<(! GB B!<)!G |!>(! (F!>)! A2) d | F2 E>D |!<(! D3!<)!!f! .d | .d.B z .B | .B.G z G | %37
w: hol- de, nickt|freund- * lich dir|zu, _ nickt|freund- lich dir|zu. Wald-|bäch- lein, Wald-|bäch- lein, möcht|
!>(! ed cB!>)! | A2 z!pp! A | A3 A/A/ | ._B.B z B |!<(! _B3 B/B/ | c=B!<)! z!f! B | %43
w: fin- * den wie|du, wie|du in dem|Mee- re, wie|du in dem|Mee- re, wie|
[Q:1/4=120]"^rit." !>!d2 !>!e!>!f | a2 !fermata!g2 | !fermata!z2!p! B2 |"^dolce" d4 | AB c2 | %48
w: du in dem|Mee- re,|zu|Gott,|mei- * ne|
 (c2 B2) | z2!pp! G2 |[Q:1/4=120]"^rit." B4 | F3 A | !fermata!G4 |] %53
w: Ruh', _|zu|Gott,|mei- ne|Ruh'!|
V:2
!pp! .B, | .B,.B, z .B, | .B,.B, z2 |!mf! D>E =FD | E4 | E>E AG |!<(! F4!<)! |!f! G>G GG | %8
w: |||hab' dich oft be-|lauscht,|hab' dich oft be-|lauscht,||
 z .G .G.G | z!p!!<(! A/G/ G/F/ F/E/ | ^D2 D2-!<)! | D!f!^C F^A | B2 F2 | z!p! ^D D^C/D/ | %14
w: ||||||
 (.F2 .E2) | z"^cresc." G GG/G/ | G4 | z!f! G GG/G/ | G2 G2 | z G (3GGG |"^dim." F4- | F4 | %22
w: ||||||||
 z2 z!pp! .B, | .B,.B, z .B, | .B,.B, z!mf! D | D>E =F^D | E2 z E |!<(! EA AG!<)! | %28
w: |||* * * wie|du, *||
"^cresc." F3!f! .F | .D.G z!p! .G | .D.D z D |!<(! ^C2 C!<)!C |!>(! D3!>)! D | D2 ^C>D | %34
w: ||||||
!<(! D3!<)!!f! .D | .D.D z .^D | .E.E z E |!>(! E2 GG!>)! | G2!pp! G2 | G2 G>G | G2 G>G | %41
w: ||||du, wie|du in dem|Mee- re, wie|
!<(! G2 G>G | G2!<)! G!f!G | !>!A2 !>!A!>!A | d2 !fermata!d2 | !fermata!z2!p! B2 | (G2 D2) | E3 F | %48
w: du in dem|Mee- re, wie|du in dem|Mee- re,|zu|Gott, _|mei- ne|
 G4 | z2!pp! E2 | G4 | D3 D | !fermata!D4 |] %53
w: Ruh',|zu|Gott,|mei- ne|Ruh'!|
V:3
!pp! .D | .D.G z .D | .D.G z2 |!mf! B>B BB | c4 | c>c cc |!<(! c4!<)! |!f! B>B Be | z .e .A.e | %9
w: Wald-|bäch- lein, Wald|bäch- lein,|hab' dich oft be-|lauscht,|hab' dich oft be-|lauscht,|wie's so lau ter.|so lu- stig|
 z!p!!<(! e cA | F2 B2-!<)! | B!f!^A A^c | f2 ^d2 | z4 | z!p! B B^A/B/ | e2 B2 | %16
w: durch's Fels- ge-|stein rauscht,|_ durch's Fels- ge-|stein rauscht.||Hier sprit- zend und|schäu- mend|
 z"^cresc." B B^A/B/ | d4 | z!f! G ge/e/ | c2 G2 | z d (3dfe |"^dim." (d2 c2) | z2 z!pp! .D | %23
w: in fröh- li- chem|Mut,|dort blau wie der|Him- mel|der ü- ber dir|ruht. _|Wald-|
 .D.G z .D | .D.G z!mf! G | B2 B>B | c2 z c |!<(! c2 c!<)!!f!c | Ad d.c | .B2 z!p! .B | .G.G z G | %31
w: bäch- lein, Wald|bäch- lein, möcht'|schwei- fen wie|du, möcht'|schwei- fen, möcht'|schwei- * fen wie|du! Schön-|blüm- lein, nickt|
!<(! EG G!<)!E |!>(! (D!>)! F2) F | A2 G>F |!<(! F3!<)!!f! .D | .G.G z .G | .G.B z B | %37
w: freund- * lich dir|zu, _ nickt|freund- lich dir|zu. Wald-|bäch- lein, Wald-|bäch- lein, möcht'|
!>(! cG ed!>)! | c2 z!pp! c | c3 c/c/ | .^c.c z c |!<(! ^c3 c/c/ | dd!<)! z!f! d | !>!f2 !>!e!>!d | %44
w: fin- * den wie|du, wie|du in dem|Mee- re, wie|du in dem|Mee- re, wie|du in dem|
 d2 !fermata!g2 | !fermata!z2!p! B2 | B4 | c2 A2 | G4 | z2!pp! B2 | d4 | AB c2 | %52
w: Mee- re,|zu|Gott,|mei- ne|Ruh',|zu|Gott,|mei- * ne|
 (c2 !fermata!B2) |] %53
w: Ruh'! _|
V:4
!pp! .G,, | .G,,.G,, z .G,, | .G,,.G,, z2 |!mf! G,>G, G,G, | G,4 | G,>G, G,G, |!<(! G,4!<)! | %7
w: |||||||
!f! G,>F, E,E, | z .E, .C,.C, | z!p!!<(! C, A,,>A,, | B,,2 B,,^D,!<)! |!f! F,2 F,F, | B,,2 B,2 | %13
w: |||* rauscht, _|durch's Fels- ge-|stein rauscht.|
 z!p! B, B,B,/B,/ | (.E,2 .E,2) | z"^cresc." E, G,E,/E,/ | B,,4 | z!f! B,, B,A,/G,/ | E,2 E,2 | %19
w: Hier sprit- zend und|schäu- mend|in fröh- li- chem|Mut,|dort blau wie der|Him- mel|
 z E, (3E,D,C, |"^dim." (C4- | C2 D,2) | z2 z!pp! .G,, | .G,,.G,, z .G,, | .G,,.G,, z!mf! G, | %25
w: der ü- ber dir|ruht.|_ _||||
 G,2 G,>G, | G,2 z G, |!<(! G,2 G,G,!<)! |"^cresc." G,3!f! .G, | .G,.E, z!p! .E, | .B,,.B,, z B,, | %31
w: ||schwei- fen wie|du! Schön-|blüm- lein, das|hol- de, nickt|
!<(! A,,2 A,,!<)!A,, |!>(! D,3!>)! B,, | F,,G,, A,,!<(!A, | A,2!<)!!f! ^A,2 | B,2 G,>G, | %36
w: freund- lich dir|zu, nickt|freund- * lich dir|zu. Wald-|bäch- lein, Wald-|
 E,2 E,D, |!>(! C,2 C,D,!>)! | E,2 z!pp! E, | E,3 E,/E,/ | .E,.E, z E, |!<(! _E,2 E,>E, | %42
w: bäch- lein, möcht'||||||
 D,D,!<)! z!f! D, | =C,=C !>!C!>!C | B,2 !fermata!B,2 | !fermata!z2!p! B,2 | D,4 | D,2 D,2 | E,4 | %49
w: |||||||
 z2!pp! E,2 | (B,,2 D,2) | D,3 D, |"^14.10.1885" !fermata!G,,4 |] %53
w: zu|Gott, _|mei- ne|Ruh'!|

